dist/img/train.svg

<svg width="100" height="121" viewBox="0 0 100 121" fill="none" xmlns="http://www.w3.org/2000/svg">
<g clip-path="url(#clip0)">
<path d="M99.1162 116.979L83.4935 100.645C89.8049 100.418 94.8705 95.2123 94.8705 88.8415V18.73C94.8705 14.9124 93.5373 11.1843 91.116 8.23248C88.6929 5.28134 85.2984 3.24768 81.5589 2.50741C73.1796 0.843521 64.6004 0 56.0596 0H43.5868C35.4636 0 27.0023 0.77878 18.4402 2.49134C10.7424 4.0326 5.15554 10.8543 5.15554 18.7111V88.8415C5.15554 95.2659 10.3071 100.505 16.6926 100.649L0.893603 116.969C0.233726 117.65 0.0453252 118.661 0.415281 119.534C0.784766 120.408 1.64107 120.976 2.58922 120.976H19.4698C20.2267 120.976 20.9376 120.612 21.3817 119.999L28.5433 110.107H71.6929L78.8545 119.999C79.2986 120.612 80.0097 120.976 80.7664 120.976H97.4109C98.3564 120.976 99.2106 120.411 99.582 119.541C99.9533 118.67 99.7701 117.663 99.1162 116.979ZM9.87738 88.8415V18.7111C9.87738 13.0987 13.868 8.22611 19.3659 7.12504C27.0727 5.58354 35.2162 4.72561 43.5866 4.72561H56.0593C64.2926 4.72561 72.5624 5.53865 80.6408 7.14252C83.3119 7.67156 85.7366 9.12421 87.4667 11.2316C89.196 13.3399 90.1484 16.0028 90.1484 18.7297V88.8415C90.1484 92.75 86.9711 95.9299 83.0657 95.9299H16.9599C13.0547 95.9299 9.87738 92.75 9.87738 88.8415ZM18.265 116.25H8.16382L23.2603 100.655H29.5549L18.265 116.25ZM31.9645 105.381L35.3857 100.655H64.8507L68.2717 105.381H31.9645ZM81.9712 116.25L70.6817 100.655H76.9677L91.8828 116.25H81.9712Z" fill="#306990" stroke="#306990" stroke-width="2"/>
<path d="M83.0667 18.9023H16.9609C15.6572 18.9023 14.6 19.9604 14.6 21.2651V60.4877C14.6 61.7924 15.6572 62.8505 16.9609 62.8505H83.0667C84.3704 62.8505 85.4276 61.7924 85.4276 60.4877V21.2651C85.4276 19.9604 84.3704 18.9023 83.0667 18.9023ZM47.6529 58.1249H19.3218V23.628H47.6529V58.1249ZM80.7057 58.1249H52.3747V23.628H80.7057V58.1249Z" fill="#306990" stroke="#306990" stroke-width="2"/>
<path d="M75.9837 69.9391C70.7765 69.9391 66.54 74.1789 66.54 79.3903C66.54 84.6017 70.7765 88.8415 75.9837 88.8415C81.191 88.8415 85.4274 84.6017 85.4274 79.3903C85.4274 74.1789 81.191 69.9391 75.9837 69.9391ZM75.9837 84.1159C73.3801 84.1159 71.2619 81.996 71.2619 79.3903C71.2619 76.7846 73.3801 74.6647 75.9837 74.6647C78.5873 74.6647 80.7055 76.7846 80.7055 79.3903C80.7055 81.996 78.5873 84.1159 75.9837 84.1159Z" fill="#306990" stroke="#306990" stroke-width="2"/>
<path d="M24.0436 69.9391C18.8364 69.9391 14.6 74.1789 14.6 79.3903C14.6 84.6017 18.8366 88.8415 24.0436 88.8415C29.2509 88.8415 33.4873 84.6017 33.4873 79.3903C33.4873 74.1789 29.2509 69.9391 24.0436 69.9391ZM24.0436 84.1159C21.44 84.1159 19.3218 81.996 19.3218 79.3903C19.3218 76.7846 21.44 74.6647 24.0436 74.6647C26.6473 74.6647 28.7655 76.7846 28.7655 79.3903C28.7655 81.996 26.6473 84.1159 24.0436 84.1159Z" fill="#306990" stroke="#306990" stroke-width="2"/>
<path d="M59.4574 72.3019H40.57C39.2663 72.3019 38.2091 73.3599 38.2091 74.6647C38.2091 75.9694 39.2663 77.0275 40.57 77.0275H59.4574C60.7611 77.0275 61.8183 75.9694 61.8183 74.6647C61.8183 73.3599 60.7613 72.3019 59.4574 72.3019Z" fill="#306990" stroke="#306990" stroke-width="2"/>
<path d="M59.4574 81.7531H40.57C39.2663 81.7531 38.2091 82.8111 38.2091 84.1159C38.2091 85.4206 39.2663 86.4787 40.57 86.4787H59.4574C60.7611 86.4787 61.8183 85.4206 61.8183 84.1159C61.8183 82.8111 60.7613 81.7531 59.4574 81.7531Z" fill="#306990" stroke="#306990" stroke-width="2"/>
</g>
<defs>
<clipPath id="clip0">
<rect width="100" height="120.976" fill="white"/>
</clipPath>
</defs>
</svg>

<svg width="100" height="121" fill="none" xmlns="http://www.w3.org/2000/svg"><g clip-path="url(#clip0)" fill="#306990" stroke="#306990" stroke-width="2"><path d="M99.116 116.979l-15.623-16.334c6.312-.227 11.378-5.433 11.378-11.803V18.73c0-3.818-1.334-7.546-3.755-10.498a16.561 16.561 0 00-9.557-5.725A131.218 131.218 0 0056.059 0H43.588C35.464 0 27.002.779 18.44 2.491c-7.698 1.542-13.284 8.363-13.284 16.22v70.13c0 6.425 5.151 11.664 11.537 11.808l-15.8 16.32a2.363 2.363 0 001.696 4.007h16.88c.758 0 1.469-.364 1.913-.977l7.161-9.892h43.15l7.162 9.892a2.362 2.362 0 001.911.977h16.645a2.361 2.361 0 001.705-3.997zM9.877 88.841v-70.13c0-5.612 3.991-10.485 9.489-11.586 7.707-1.541 15.85-2.4 24.22-2.4H56.06c8.234 0 16.503.814 24.582 2.418a11.83 11.83 0 016.826 4.089 11.853 11.853 0 012.681 7.498v70.11c0 3.909-3.177 7.089-7.082 7.089H16.96c-3.905 0-7.083-3.18-7.083-7.089zm8.388 27.409H8.164l15.096-15.595h6.295l-11.29 15.595zm13.7-10.869l3.42-4.726h29.466l3.42 4.726H31.966zM81.97 116.25l-11.29-15.595h6.287l14.915 15.595H81.97z"/><path d="M83.067 18.902H16.96a2.362 2.362 0 00-2.361 2.363v39.223a2.362 2.362 0 002.36 2.362h66.107a2.362 2.362 0 002.36-2.362V21.265a2.362 2.362 0 00-2.36-2.363zM47.653 58.125H19.322V23.628h28.33v34.497zm33.053 0H52.375V23.628h28.33v34.497zM75.984 69.94c-5.207 0-9.444 4.239-9.444 9.45 0 5.212 4.236 9.451 9.444 9.451 5.207 0 9.443-4.24 9.443-9.45 0-5.212-4.236-9.452-9.443-9.452zm0 14.176a4.73 4.73 0 01-4.722-4.726 4.73 4.73 0 014.722-4.725 4.73 4.73 0 014.722 4.725 4.73 4.73 0 01-4.722 4.726zM24.044 69.94c-5.208 0-9.444 4.239-9.444 9.45 0 5.212 4.237 9.451 9.444 9.451 5.207 0 9.443-4.24 9.443-9.45 0-5.212-4.236-9.452-9.443-9.452zm0 14.176a4.73 4.73 0 01-4.722-4.726 4.73 4.73 0 014.722-4.725 4.73 4.73 0 014.721 4.725 4.73 4.73 0 01-4.721 4.726zm35.413-11.814H40.57a2.362 2.362 0 000 4.725h18.887a2.362 2.362 0 000-4.725zm0 9.451H40.57a2.362 2.362 0 000 4.726h18.887a2.362 2.362 0 000-4.726z"/></g><defs><clipPath id="clip0"><path fill="#fff" d="M0 0h100v120.976H0z"/></clipPath></defs></svg>
